X:370
T: Tiao shui diao
N: C1405
O: China, Shaanxi, Ziyang
S: I, 72]
R: Xiaodiao]
M: 2/4
L: 1/16
K: G
d2B2d2B2 | d2B2A4 | B4d2Bd | d2B4d2 | B8
d2B2d2Bd | e6B2 | e2d2BdA2 | B8
d2B2e4 | B3AGAG2 | E2E4G2 | A4B3A | A8

